**kern	**kern	**dynam
*part1	*part1	*part1
*staff2	*staff1	*
*I"Piano	*	*
*clefF4	*clefG2	*
*k[]	*k[]	*
=1	=1	=1
(8qCC/	.	.
*	*^	*
[2.C) [2.G [2.B-X	(2.c 2.cc	[2.e [2.b-X	.
=	=	=	=
2.C] 2.G] 2.B-X]	4.d 4.dd	2.e] 2.b-X]	.
.	4.e) 4.ee	.	.
=	=	=	=
[2.FF: [2.F: [2.A:	([2.e [2.ee	[2.f [2.a	.
=	=	=	=
2.FF] 2.F] 2.A]	4.e] 4.ee]	2.f] 2.a]	.
.	4.d) 4.dd	.	.
=	=	=	=
(4qqGGG/	.	.	.
[2.GG) [2.D [2.G	(2.cc	[2.d [2.f [2.g	.
=	=	=	=
2.GG] 2.D] 2.G]	2.b)	2.d] 2.f] 2.g]	.
*	*v	*v	*
=	=	=
*^	*	*
[2.CC [2.C	8re	[2.c [2.e [2.g [2.cc	f
.	(8EEL	.	.
.	8GGJ	.	.
.	8CL	.	.
.	8E	.	.
.	8GJ	.	.
=	=	=	=
2.CC_ 2.C_	8cL	2.c_ 2.e_ 2.g_ 2.cc_	.
.	8e>	.	.
.	8gJ>	.	.
.	8ccL>	.	.
.	8ee>	.	.
.	8ggJ>	.	.
*v	*v	*	*
=	=	=
*-	*-	*-
!!!system-decoration: {(s1,s2)}
!!!RDF**kern: > = above
